X:1
T:Title
%%score { ( 1 3 ) | ( 2 4 ) }
L:1/8
Q:1/4=124
M:3/4
K:Ab
V:1 treble nm="Grand Piano"
V:3 treble 
V:2 bass 
V:4 bass 
V:1
 [Fd]4 [=EB]2 | [FA]4[K:bass] [F,DF]2 | [F,D]4[K:treble] [A,CE]2 | [A,DF]6 | [DB]4 [D_GB]2 | %5
w: Arthur~S.~Magann *|||||
 G2- [G=A]2 [DGB]2 | [E_Gc]4 [EGc]2 | [E_Gc]6 | [Fd]4 [=EB]2 | [FA]4 z2 | D4 [CE]2 | F6 | %12
w: |||||||
 B2 c2 d2 | d4 D2 | [A,DF]4[K:bass] [_G,CE]2 | [F,D]6 | [CA]6 | A6[K:bass] | [CA]4 z2 | [DA]6 | %20
w: ||||||||
 [D_GB]4 [=DAB]2 | B2 z2 [EGB]2 | c4 c2 | c6 | d4 z2 | A4 F2 | D4 [CE]2 | F6 | B2 c2 d2 | %29
w: |||||||||
[M:7/8] f- f3 [Ad]3 | %30
w: |
[M:3/4] [Gd]4 [_Gc]2[Q:1/4=122][Q:1/4=120][Q:1/4=119][Q:1/4=117][Q:1/4=115][Q:1/4=113][Q:1/4=111][Q:1/4=109][Q:1/4=108][Q:1/4=106][Q:1/4=104][Q:1/4=102][Q:1/4=100][Q:1/4=98][Q:1/4=97][Q:1/4=95] | %31
w: |
 [Fd]6 |] %32
w: |
V:2
 [D,A,]4 [D,G,]2 | z2 D2 D,2 | B,,4 A,,2 | D,6 | z2 B,2 _G,2 | z2 C2 E,2 | A,4 A,2 | A,6 | %8
 z2 A,2 [D,G,]2 | A,2 z2 [D,A,D]2 | [B,,G,]4 [A,,_G,]2 | [D,A,D]6 | %12
 [B,D]2[K:treble] [=A,E]2 [=G,B,=E]2 | [A,DF]4[K:bass] [=A,,G,]2 | A,,4 A,,2 | D,6 | %16
 A,,2 C,2 _G,2 | D2 z2 z2 | [A,,_G,]2 C,2 G,2 | F,6 | _G,4 F,2 | z2[K:treble] =A2 E,2 | %22
 [A,EA]4 [A,EG]2 | [A,E_G]6 | [DF]4 [G,D=E]2 | [A,DF]4[K:bass] [F,A,D]2 | [B,,F,]4 [A,,A,]2 | %27
 [D,A,D]6 | [B,D]2 z2[K:treble] z2 |[M:7/8] [A,DF]- [A,DF]3[K:bass] [F,D]3 |[M:3/4] [E,E]4 [A,E]2 | %31
 [D,D]6 |] %32
V:3
 x6 | A,2 z2[K:bass] z2 | x4[K:treble] x2 | x6 | x6 | [DB]2 z2 z2 | x6 | x6 | D2 z2 z2 | z2 D2 F2 | %10
 x6 | x6 | x6 | x6 | x4[K:bass] x2 | x6 | A,4 E2 | z2[K:bass] A,2 F,2 | z2 E,2 [CEA]2 | x6 | x6 | %21
 [EG]4 z2 | x6 | x6 | z2 F,2 B2 | x6 | x6 | x6 | x6 |[M:7/8] x7 |[M:3/4] x6 | x6 |] %32
V:4
 x6 | D,4 z2 | x6 | x6 | _G,4 z2 | E,4 z2 | x6 | x6 | D,4 z2 | D,4 z2 | x6 | x6 | %12
 _G,4[K:treble] z2 | x4[K:bass] x2 | x6 | x6 | x6 | F,4 D,2 | x6 | x6 | x6 | E,4[K:treble] z2 | %22
 x6 | x6 | B,2 z2 z2 | x4[K:bass] x2 | x6 | x6 | _G,2- [G,=A,E]2[K:treble] [=G,B,=E]2 | %29
[M:7/8] x4[K:bass] x3 |[M:3/4] x6 | x6 |] %32

